!!!SOCIAL_FUNCTION:	dream songs
!!!PDT:	1913
!!!OTL: No_144_Dream_Song.krn
!!!REG: Great_Lakes
!!!LANG: Non-Tone
!!!LING_GROUP: Algonquin
**kern	**kern
*staff2	*staff1
=1-	=1-
*clefF4	*clefF4
*k[f#c#g#d#a#]	*k[f#c#g#d#a#]
*M3/4	*M3/4
12GG#^/	4f#\
12r	.
12GG#/	.
12GG#^/	4.f#\
12r	.
12GG#/	.
12GG#^/	.
12r	.
.	8d#\
12GG#/	.
=2	=2
2.r	16B\LK
.	8.B\J
.	2B\
=3	=3
2.r	4f#\
.	4.d#\
.	16f#\LL
.	16d#\JJ
=4	=4
2.r	16f#\LL
.	16B\J
.	8B\J
.	2B\
=5	=5
2.r	16f#\LL
.	16d#\
.	16f#\
.	16B\JJ
.	8.B\L
.	16B\Jk
.	8B\L
.	8F#\J
=6||	=6||
*M2/4	*M2/4
.	F#q/
2r	2F#\
=7||	=7||
*M3/4	*M3/4
2.r	8B\L
.	16B\L
.	16F#\JJ
.	4.F#\
.	16F#\LL
.	16D#\JJ
=8	=8
2.r	8.BB/L
.	16BB/Jk
.	2BB/
==	==
*-	*-
